content/codes/images/semaphore/Semaphore_Echo.svg

<svg height="500" width="600" xmlns="http://www.w3.org/2000/svg"><path d="m275 200a25 25 0 1 1 -50 0 25 25 0 1 1 50 0z" fill-rule="evenodd" transform="translate(50 10)"/><rect fill-rule="evenodd" height="160" rx="20" ry="21.333334" width="70" x="265" y="240"/><g><g fill-rule="evenodd"><rect height="20.000006" rx="10.000003" transform="matrix(.707107 -.707107 .707107 .707107 0 0)" width="70.000023" x="60.710747" y="414.26401"/><path d="m120.71076 419.26401h200.00006v10.000003h-200.00006z" stroke="#000" transform="matrix(.707107 -.707107 .707107 .707107 0 0)"/><path d="m530.31228 204.03794-63.63963-63.63963 63.63963-63.639625 63.63963 63.639625z" fill="#ff0"/><path d="m466.67265 140.39831 63.63963-63.639625 63.63963 63.639625z" fill="#f00"/></g><path d="m530.31228 204.03794-63.63963-63.63963 63.63963-63.639625 63.63963 63.639625z" fill="none" stroke="#000" stroke-linejoin="round"/></g><g><g fill-rule="evenodd"><rect height="20" rx="10" transform="matrix(0 1 -1 0 0 0)" width="70" x="240" y="-260"/><path d="m300-255h200v10h-200z" stroke="#000" transform="matrix(0 1 -1 0 0 0)"/><path d="m345 410v90h-90v-90z" fill="#ff0"/><path d="m345 500h-90v-90z" fill="#f00"/></g><path d="m345 410v90h-90v-90z" fill="none" stroke="#000" stroke-linejoin="round"/></g></svg>

<?xml version="1.0" encoding="UTF-8" standalone="no"?>
<!-- Created with Inkscape (http://www.inkscape.org/) -->
<svg
   xmlns:dc="http://purl.org/dc/elements/1.1/"
   xmlns:cc="http://web.resource.org/cc/"
   xmlns:rdf="http://www.w3.org/1999/02/22-rdf-syntax-ns#"
   xmlns:svg="http://www.w3.org/2000/svg"
   xmlns="http://www.w3.org/2000/svg"
   xmlns:sodipodi="http://inkscape.sourceforge.net/DTD/sodipodi-0.dtd"
   xmlns:inkscape="http://www.inkscape.org/namespaces/inkscape"
   width="600"
   height="500"
   id="svg2"
   sodipodi:version="0.32"
   inkscape:version="0.43"
   version="1.0"
   sodipodi:docbase="C:\Documents and Settings\David Nelson\Archives\Svg"
   sodipodi:docname="Semaphore Echo.svg">
  <defs
     id="defs4" />
  <sodipodi:namedview
     id="base"
     pagecolor="#ffffff"
     bordercolor="#666666"
     borderopacity="1.0"
     inkscape:pageopacity="0.0"
     inkscape:pageshadow="2"
     inkscape:zoom="0.5"
     inkscape:cx="277.85308"
     inkscape:cy="238.30965"
     inkscape:document-units="px"
     inkscape:current-layer="layer4"
     showgrid="true"
     inkscape:grid-points="true"
     inkscape:window-width="756"
     inkscape:window-height="540"
     inkscape:window-x="378"
     inkscape:window-y="253" />
  <metadata
     id="metadata7">
    <rdf:RDF>
      <cc:Work
         rdf:about="">
        <dc:format>image/svg+xml</dc:format>
        <dc:type
           rdf:resource="http://purl.org/dc/dcmitype/StillImage" />
      </cc:Work>
    </rdf:RDF>
  </metadata>
  <g
     inkscape:label="Head and Torso"
     inkscape:groupmode="layer"
     id="layer1">
    <path
       sodipodi:type="arc"
       style="opacity:1;fill:#000000;fill-opacity:1;fill-rule:evenodd;stroke:none;stroke-width:2.5;stroke-miterlimit:4;stroke-dasharray:none;stroke-opacity:1"
       id="path7712"
       sodipodi:cx="250"
       sodipodi:cy="200"
       sodipodi:rx="25"
       sodipodi:ry="25"
       d="M 275 200 A 25 25 0 1 1  225,200 A 25 25 0 1 1  275 200 z"
       transform="translate(50,10)" />
    <rect
       style="opacity:1;fill:#000000;fill-opacity:1;fill-rule:evenodd;stroke:none;stroke-width:2.5;stroke-miterlimit:4;stroke-dasharray:none;stroke-opacity:1"
       id="rect7718"
       width="70"
       height="160"
       x="265"
       y="240"
       rx="20"
       ry="21.333334" />
  </g>
  <g
     inkscape:groupmode="layer"
     id="layer4"
     inkscape:label="Left Hand"
     style="display:inline">
    <g
       id="g11864">
      <rect
         style="fill:#000000;fill-opacity:1;fill-rule:evenodd;stroke:none;stroke-width:2.5;stroke-miterlimit:4;stroke-dasharray:none;stroke-opacity:1"
         id="rect7980"
         width="70.000023"
         height="20.000006"
         x="60.710747"
         y="414.26401"
         rx="10.000003"
         ry="10.000003"
         transform="matrix(0.707107,-0.707107,0.707107,0.707107,0,0)" />
      <rect
         style="fill:#000000;fill-opacity:1;fill-rule:evenodd;stroke:#000000;stroke-width:0.9999997;stroke-miterlimit:4;stroke-dasharray:none;stroke-opacity:1"
         id="rect7982"
         width="200.00006"
         height="10.000003"
         x="120.71076"
         y="419.26401"
         transform="matrix(0.707107,-0.707107,0.707107,0.707107,0,0)" />
      <path
         id="path7986"
         d="M 530.31228,204.03794 L 466.67265,140.39831 L 530.31228,76.758685 L 593.95191,140.39831 L 530.31228,204.03794 z "
         style="fill:#ffff00;fill-opacity:1;fill-rule:evenodd;stroke:none;stroke-width:0.5;stroke-miterlimit:4;stroke-opacity:1" />
      <path
         style="fill:#ff0000;fill-opacity:1;fill-rule:evenodd;stroke:none;stroke-width:0.5;stroke-miterlimit:4;stroke-opacity:1"
         d="M 466.67265,140.39831 L 530.31228,76.758685 L 593.95191,140.39831 L 466.67265,140.39831 z "
         id="path7988" />
      <path
         style="fill:#ffff00;fill-opacity:0;fill-rule:evenodd;stroke:#000000;stroke-width:1;stroke-linejoin:round;stroke-miterlimit:4;stroke-dasharray:none;stroke-opacity:1"
         d="M 530.31228,204.03794 L 466.67265,140.39831 L 530.31228,76.758685 L 593.95191,140.39831 L 530.31228,204.03794 z "
         id="path11842" />
    </g>
  </g>
  <g
     inkscape:groupmode="layer"
     id="layer5"
     inkscape:label="Right Hand"
     style="display:inline">
    <g
       id="g12044">
      <rect
         ry="10"
         rx="10"
         y="-260"
         x="240"
         height="20"
         width="70"
         id="rect7901"
         style="fill:#000000;fill-opacity:1;fill-rule:evenodd;stroke:none;stroke-width:2.5;stroke-miterlimit:4;stroke-dasharray:none;stroke-opacity:1"
         transform="matrix(-1.090978e-18,1,-1,-1.090978e-18,0,0)" />
      <rect
         y="-255"
         x="300"
         height="10"
         width="200"
         id="rect7903"
         style="fill:#000000;fill-opacity:1;fill-rule:evenodd;stroke:#000000;stroke-width:1;stroke-miterlimit:4;stroke-dasharray:none;stroke-opacity:1"
         transform="matrix(-7.636846e-19,1,-1,-1.55854e-18,0,0)" />
      <path
         style="fill:#ffff00;fill-opacity:1;fill-rule:evenodd;stroke:none;stroke-width:0.5;stroke-miterlimit:4;stroke-opacity:1"
         d="M 345,410 L 345,500 L 255,500 L 255,410 L 345,410 z "
         id="path7907" />
      <path
         id="path7909"
         d="M 345,500 L 255,500 L 255,410 L 345,500 z "
         style="fill:#ff0000;fill-opacity:1;fill-rule:evenodd;stroke:none;stroke-width:0.5;stroke-miterlimit:4;stroke-opacity:1" />
      <path
         id="path12001"
         d="M 345,410 L 345,500 L 255,500 L 255,410 L 345,410 z "
         style="fill:#ffff00;fill-opacity:0;fill-rule:evenodd;stroke:#000000;stroke-width:1;stroke-linejoin:round;stroke-miterlimit:4;stroke-dasharray:none;stroke-opacity:1" />
    </g>
  </g>
</svg>
